X: 180
T: Barras, The
M:4/4
R:song
Q:1/2=120
L:1/8
Z:Alf Warnock - alf0@rogers.com
K:A
%%text Verse
|: A2c2|"A"e3e e2f2|e2c2 B2A2|"D"d3e f2g2|a4 g2f2|
"A"e3e ^d2e2|f2e2 c2A2|"E7"B8-|B4 A2c2|
"A"e3e e2f2|e2c2 B2A2|"D"d3e f2g2|a4 g2f2|
"E7"e3f g2f2|e2d2 c2B2|"A"A8-|A4 :|
%%text Chorus
a3a|"D"a2f2 f2d2|f2f4a2|"A"a2e2 e2c2|e2e4e2|
"A"e2e2 ^d2e2|f2e2 c2A2|"E7"B8-|B4 A2c2|
"A"e3e e2f2|e2c2 B2A2|"D"d3e f2g2|a4 g2f2|
"E7"e3f g2f2|e2d2 c2B2|"A"A8|A4|]

